src/icons/checkmark.svg

<?xml version="1.0" encoding="UTF-8"?>
<svg width="512px" height="512px" viewBox="0 0 512 512" version="1.1" xmlns="http://www.w3.org/2000/svg" xmlns:xlink="http://www.w3.org/1999/xlink">
    <!-- Generator: Sketch 62 (91390) - https://sketch.com -->
    <title>checkmark</title>
    <desc>Created with Sketch.</desc>
    <g id="checkmark" stroke="none" stroke-width="1" fill="none" fill-rule="evenodd">
        <path d="M414.2,136.85 L372,103.55 C370.7,102.45 369.1,101.75 367.2,101.75 C365.4,101.75 363.7,102.55 362.4,103.65 L208.6,301.05 C208.6,301.05 148.2,242.95 146.5,241.25 C144.8,239.55 142.6,236.75 139.2,236.75 C135.8,236.75 134.3,239.15 132.5,240.95 C131.2,242.35 109.6,264.95 99,276.15 C98.4,276.85 98,277.25 97.5,277.75 C96.6,279.05 96,280.55 96,282.15 C96,283.85 96.6,285.25 97.5,286.55 L99.7,288.55 C99.7,288.55 206.9,391.45 208.6,393.25 C210.4,395.05 212.5,397.25 215.7,397.25 C218.8,397.25 221.3,393.95 222.8,392.45 L414.5,146.15 C415.4,144.85 416,143.35 416,141.65 C416,139.85 415.2,138.15 414.2,136.85 Z" id="Path" fill="#000000" fill-rule="nonzero"></path>
    </g>
</svg>

<svg xmlns="http://www.w3.org/2000/svg" width="512" height="512" viewBox="0 0 512 512">
    <path d="M414.2 136.85l-42.2-33.3c-1.3-1.1-2.9-1.8-4.8-1.8-1.8 0-3.5.8-4.8 1.9l-153.8 197.4s-60.4-58.1-62.1-59.8c-1.7-1.7-3.9-4.5-7.3-4.5s-4.9 2.4-6.7 4.2c-1.3 1.4-22.9 24-33.5 35.2-.6.7-1 1.1-1.5 1.6-.9 1.3-1.5 2.8-1.5 4.4 0 1.7.6 3.1 1.5 4.4l2.2 2s107.2 102.9 108.9 104.7c1.8 1.8 3.9 4 7.1 4 3.1 0 5.6-3.3 7.1-4.8l191.7-246.3c.9-1.3 1.5-2.8 1.5-4.5 0-1.8-.8-3.5-1.8-4.8z"/>
</svg>
